Newaita-dark/actions/24/system-switch-user.svg

<?xml version="1.0" encoding="UTF-8"?>
<svg xmlns="http://www.w3.org/2000/svg" xmlns:xlink="http://www.w3.org/1999/xlink" width="24pt" height="24pt" viewBox="0 0 24 24" version="1.1">
<defs>
<filter id="alpha" filterUnits="objectBoundingBox" x="0%" y="0%" width="100%" height="100%">
  <feColorMatrix type="matrix" in="SourceGraphic" values="0 0 0 0 1 0 0 0 0 1 0 0 0 0 1 0 0 0 1 0"/>
</filter>
<mask id="mask0">
  <g filter="url(#alpha)">
<rect x="0" y="0" width="24" height="24" style="fill:rgb(0%,0%,0%);fill-opacity:0.988235;stroke:none;"/>
  </g>
</mask>
<clipPath id="clip1">
  <rect x="0" y="0" width="24" height="24"/>
</clipPath>
<g id="surface5" clip-path="url(#clip1)">
<path style=" stroke:none;fill-rule:nonzero;fill:rgb(14.901961%,65.098041%,60.392159%);fill-opacity:1;" d="M 11.90625 1.179688 C 5.878906 1.179688 0.992188 6.066406 0.992188 12.09375 C 0.992188 18.125 5.878906 23.011719 11.90625 23.011719 C 17.9375 23.011719 22.824219 18.125 22.824219 12.09375 C 22.824219 6.066406 17.9375 1.179688 11.90625 1.179688 Z M 11.90625 2.667969 C 17.128906 2.667969 21.335938 6.871094 21.335938 12.09375 C 21.335938 17.316406 17.128906 21.523438 11.90625 21.523438 C 6.683594 21.523438 2.480469 17.316406 2.480469 12.09375 C 2.480469 6.871094 6.683594 2.667969 11.90625 2.667969 Z M 11.90625 2.667969 "/>
</g>
</defs>
<g id="surface1">
<use xlink:href="#surface5" mask="url(#mask0)"/>
<path style=" stroke:none;fill-rule:nonzero;fill:rgb(14.901961%,65.098041%,60.392159%);fill-opacity:1;" d="M 13.300781 11.144531 C 13.109375 11.136719 12.925781 11.207031 12.785156 11.339844 C 12.648438 11.472656 12.570312 11.65625 12.570312 11.847656 L 12.570312 17.800781 C 12.570312 18.054688 12.707031 18.289062 12.925781 18.414062 C 13.148438 18.539062 13.417969 18.535156 13.636719 18.40625 L 18.597656 15.429688 C 18.808594 15.300781 18.9375 15.074219 18.9375 14.824219 C 18.9375 14.578125 18.808594 14.347656 18.597656 14.222656 L 13.636719 11.246094 C 13.535156 11.183594 13.421875 11.152344 13.300781 11.144531 Z M 13.976562 13.089844 L 16.867188 14.824219 L 13.976562 16.558594 Z M 13.976562 13.089844 "/>
<path style=" stroke:none;fill-rule:nonzero;fill:rgb(14.901961%,65.098041%,60.392159%);fill-opacity:1;" d="M 10.511719 5.683594 C 10.703125 5.675781 10.890625 5.746094 11.027344 5.878906 C 11.164062 6.011719 11.242188 6.195312 11.242188 6.386719 L 11.242188 12.339844 C 11.242188 12.59375 11.109375 12.828125 10.886719 12.953125 C 10.667969 13.078125 10.394531 13.074219 10.179688 12.945312 L 5.21875 9.96875 C 5.003906 9.839844 4.875 9.613281 4.875 9.363281 C 4.875 9.117188 5.003906 8.886719 5.21875 8.761719 L 10.179688 5.785156 C 10.28125 5.722656 10.394531 5.691406 10.511719 5.683594 Z M 9.835938 7.628906 L 6.945312 9.363281 L 9.835938 11.097656 Z M 9.835938 7.628906 "/>
</g>
</svg>

<svg xmlns="http://www.w3.org/2000/svg" xmlns:xlink="http://www.w3.org/1999/xlink" width="32" height="32" viewBox="0 0 24 24"><defs><filter id="a" filterUnits="objectBoundingBox" x="0%" y="0%" width="100%" height="100%"><feColorMatrix in="SourceGraphic" values="0 0 0 0 1 0 0 0 0 1 0 0 0 0 1 0 0 0 1 0"/></filter><mask id="d"><path fill-opacity=".988" d="M0 0h24v24H0z" filter="url(#a)"/></mask><clipPath id="b"><path d="M0 0h24v24H0z"/></clipPath><g id="c" clip-path="url(#b)"><path d="M11.906 1.18C5.88 1.18.992 6.066.992 12.094c0 6.031 4.887 10.918 10.914 10.918 6.031 0 10.918-4.887 10.918-10.918 0-6.028-4.887-10.914-10.918-10.914zm0 1.488a9.408 9.408 0 0 1 9.43 9.426 9.41 9.41 0 0 1-9.43 9.43 9.408 9.408 0 0 1-9.426-9.43 9.404 9.404 0 0 1 9.426-9.426zm0 0" fill="#26a69a"/></g></defs><use xlink:href="#c" mask="url(#d)"/><path d="M13.3 11.145a.706.706 0 0 0-.515.195.71.71 0 0 0-.215.508V17.8c0 .254.137.488.356.613a.711.711 0 0 0 .71-.008l4.962-2.976a.706.706 0 0 0 0-1.207l-4.961-2.977a.719.719 0 0 0-.336-.101zm.677 1.945l2.89 1.734-2.89 1.735zm0 0M10.512 5.684a.7.7 0 0 1 .73.703v5.953a.704.704 0 1 1-1.063.605L5.22 9.97a.701.701 0 0 1 0-1.207l4.96-2.977a.717.717 0 0 1 .333-.101zm-.676 1.945l-2.89 1.734 2.89 1.735zm0 0" fill="#26a69a"/></svg>
